!!!COM: Bach, Johann Sebastian
!!!OPR: Joh. Seb. Bachs vierstimmige Choralges‰nge
!!!XEN: Four-part Chorales
!!!OTL: 11. Alles ist an Gottes Segen
!!!SCT: BWV 263
!!!SCA: Thematisch-systematisches Verzeichnis der musikalischen Werke Johann Sebastian Bach: Bach-Werke-Verzeichnis (Schmieder)
!!!YOR: Bach Gesellschaft Edition xxxix
!!!ENC: Steven Rasmussen
!!!CDT: 1685/3//-1750/7/28/
!!!OCY: Deutschland
!!!YEC: Copyright (c) 1994, 2000 Center for Computer Assisted Research in the Humanities
!!!YEM: Rights to all derivative editions reserved
!!!YEN: United States of America
**kern	**silbe	**kern	**kern	**kern
*I:[SOPRANO]	*I:[SOPRANO]	*I:[ALTO]	*I:[TENORE]	*I:[BASSO]
*clefG2	*	*clefG2	*clefGv2	*clefF4
*k[f#]	*	*k[f#]	*k[f#]	*k[f#]
*G:	*	*G:	*G:	*G:
*M4/4	*	*M4/4	*M4/4	*M4/4
=1-	=1-	=1-	=1-	=1-
4g	Al-	4d	4B	4G 4GG
4g	-les	4d	4B	4G
4dd	ist	(8d	4A	4F#
.	.	4a)	.	.
4dd	an	.	4B	4G
.	.	8g	.	.
=2	=2	=2	=2	=2
4cc	Got-	4a	4e	4G
4dd	-tes	8aL	4d	8F#L
.	.	8f#J	.	8DJ
4b	Se-	4g	4d	4G
4g;	-gen	4d;	4B;	4GG;
=3	=3	=3	=3	=3
4b	und	4g	4d	8GGL
.	.	.	.	8AAJ
4b	an	4g	4d	8BBL
.	.	.	.	8CJ
4a	sei-	4g	4d	8DL
.	.	.	.	8EJ
4a	-ner	4f#	4d	8F#L
.	.	.	.	8DJ
=4	=4	=4	=4	=4
4g	Gnad'	8f#L	8dL	8BBL
.	.	16eL	8BJ	8EJ
.	.	16dJJ	.	.
4a	ge-	8eL	4A	8C#L
.	.	8c#J	.	8AAJ
4f#	-le-	4d	4A	4D
4d;	-gen	4A;	4F#;	4DD;
=5	=5	=5	=5	=5
4a	√º-	4d	8F#L	8DL
.	.	.	8GJ	8EJ
4a	-ber	4d	8AL	8F#L
.	.	.	8F#J	8DJ
8bL	al-	4d	4G	4G
8aJ	.	.	.	.
8gL	-les	4d	4A	4D
8f#J	.	.	.	.
=6	=6	=6	=6	=6
4.e	Geld	8dL	4.A	4A
.	.	8BJ	.	.
.	.	4c#	.	4AA
8d	und	.	16GLL	.
.	.	.	16F#JJ	.
2d;	Gut.	2A;	2F#;	2D;
=7	=7	=7	=7	=7
4dd	Wer	4a	4f#	(8D
.	.	.	.	4d)
4dd	auf	4a	4f#	.
.	.	.	.	8c
4dd	Gott	8g#L	4fn	8BL
.	.	8aJ	.	8AJ
4ee	sein'	4b	4e	8G#L
.	.	.	.	8EJ
=8	=8	=8	=8	=8
4cc	Hoff-	8bL	4e	8AL
.	.	16aL	.	8GJ
.	.	16gJJ	.	.
4dd	-nung	4a	4d	8F#L
.	.	.	.	8DJ
4b	se-	4g	4d	4G
4g;	-tzet,	4d;	4B;	4GG;
=9	=9	=9	=9	=9
4b	der	4g	8dL	4G
.	.	.	8BJ	.
4b	be-	8gL	8eL	4G
.	.	8f#J	8dJ	.
4a	-h√§lt	8eL	8c#L	4G
.	.	8c#J	8AJ	.
4a	ganz	4f#	4d	8F#L
.	.	.	.	8DJ
=10	=10	=10	=10	=10
4g	un-	8f#L	8dL	8BBL
.	.	16eL	8BJ	8EJ
.	.	16dJJ	.	.
4a	-ver-	8eL	4A	8C#L
.	.	8c#J	.	8AAJ
4f#	-le-	4d	4A	4D
4d;	-tzet	4A;	4F#;	4DD;
=11	=11	=11	=11	=11
4g	ei-	8dL	4G	8BBL
.	.	8BJ	.	8EJ
4a	-nen	4f#	4d	8DL
.	.	.	.	8CJ
8bL	frei-	8gL	8dL	8BBL
8ccJ	.	8f#J	8cJ	8AAJ
8ddL	-en	4g	8BL	8GGL
8ccJ	.	.	8cJ	8EJ
=12	=12	=12	=12	=12
4b	Hel-	4g	4d	4D
8aL	-den-	4f#	8.dL	4DD
8gJ	.	.	.	.
.	.	.	16cJk	.
2g;	-mut.	2d;	2B;	2GG;
==|!	==|!	==|!	==|!	==|!
*-	*-	*-	*-	*-
!!!RWG: Key is interpreted using the Humdrum key tool.
!!!END: 1994/05/06
!!!EMD: Converted from MuseData to Humdrum Dec 19, 2000, by Andreas Kornstaedt using muse2kern.
!!!EED: Craig Stuart Sapp
!!!EEV: 2024/03/31
!!!ONB: Some non-unicode characters
